build/img/appstore-icon.svg

<svg width="174" height="64" viewBox="0 0 174 64" fill="none" xmlns="http://www.w3.org/2000/svg">
<rect width="174" height="64" rx="8" fill="black"/>
<path d="M39.4851 29.2014C39.072 29.9274 38.8496 30.7457 38.8389 31.5804C38.8399 32.5193 39.118 33.4371 39.6386 34.2194C40.1592 35.0017 40.8992 35.6139 41.7663 35.9796C41.4254 37.084 40.9115 38.1277 40.2436 39.0721C39.3467 40.41 38.4063 41.7171 36.9138 41.7412C36.2039 41.7576 35.7248 41.554 35.2255 41.3419C34.7047 41.1207 34.1619 40.8901 33.3127 40.8901C32.412 40.8901 31.845 41.1281 31.2982 41.3576C30.8256 41.5559 30.368 41.7479 29.7232 41.7746C28.3018 41.8271 27.2155 40.3467 26.286 39.0213C24.4282 36.3147 22.9815 31.3936 24.921 28.0452C25.3687 27.2429 26.0172 26.57 26.8033 26.0919C27.5893 25.6139 28.4862 25.347 29.4064 25.3174C30.2126 25.3008 30.9862 25.6107 31.6644 25.8823C32.1831 26.0901 32.646 26.2755 33.0251 26.2755C33.3583 26.2755 33.8083 26.0974 34.3327 25.8899C35.1588 25.5629 36.1696 25.1629 37.1997 25.2707C37.9891 25.2953 38.7619 25.5031 39.4566 25.8777C40.1514 26.2522 40.749 26.7832 41.202 27.4284C40.4889 27.8655 39.8983 28.4755 39.4851 29.2014Z" fill="white"/>
<path d="M37.2172 20C37.3143 21.2642 36.9134 22.5164 36.0996 23.4906C35.7099 23.9739 35.2153 24.3628 34.653 24.6279C34.0908 24.893 33.4756 25.0274 32.8537 25.021C32.814 24.413 32.8949 23.8033 33.0917 23.2265C33.2885 22.6497 33.5973 22.1173 34.0006 21.6596C34.8254 20.7228 35.9739 20.1302 37.2172 20Z" fill="white"/>
<path d="M60.972 27.144C59.628 27.144 58.46 26.692 57.468 25.788L58.032 25.128C58.88 25.928 59.864 26.328 60.984 26.328C61.52 26.328 61.98 26.18 62.364 25.884C62.748 25.58 62.94 25.188 62.94 24.708C62.94 24.188 62.732 23.8 62.316 23.544C61.9 23.288 61.352 23.16 60.672 23.16H59.748V22.38H60.672C61.28 22.38 61.772 22.24 62.148 21.96C62.532 21.672 62.724 21.284 62.724 20.796C62.724 20.364 62.544 20.008 62.184 19.728C61.832 19.44 61.38 19.296 60.828 19.296C59.884 19.296 59.06 19.612 58.356 20.244L57.804 19.584C58.244 19.208 58.7 18.928 59.172 18.744C59.652 18.56 60.212 18.468 60.852 18.468C61.684 18.468 62.364 18.68 62.892 19.104C63.42 19.528 63.684 20.064 63.684 20.712C63.684 21.664 63.172 22.324 62.148 22.692C62.684 22.852 63.112 23.104 63.432 23.448C63.752 23.792 63.912 24.228 63.912 24.756C63.912 25.436 63.636 26.004 63.084 26.46C62.54 26.916 61.836 27.144 60.972 27.144ZM67.5089 27.132C66.8769 27.132 66.3329 26.96 65.8769 26.616C65.4209 26.272 65.1929 25.792 65.1929 25.176C65.1929 24.528 65.4329 24.028 65.9129 23.676C66.3929 23.324 67.0369 23.148 67.8449 23.148C68.4849 23.148 69.1169 23.236 69.7409 23.412V23.22C69.7409 22.676 69.5809 22.26 69.2609 21.972C68.9409 21.684 68.4889 21.54 67.9049 21.54C67.2969 21.54 66.6689 21.688 66.0209 21.984L65.7449 21.228C66.5129 20.876 67.2649 20.7 68.0009 20.7C68.8809 20.7 69.5489 20.928 70.0049 21.384C70.4369 21.816 70.6529 22.424 70.6529 23.208V27H69.7409V26.076C69.1889 26.78 68.4449 27.132 67.5089 27.132ZM67.6889 26.388C68.2649 26.388 68.7529 26.232 69.1529 25.92C69.5529 25.608 69.7529 25.208 69.7529 24.72V24.144C69.1449 23.968 68.5409 23.88 67.9409 23.88C67.3729 23.88 66.9289 23.996 66.6089 24.228C66.2889 24.452 66.1289 24.76 66.1289 25.152C66.1289 25.528 66.2769 25.828 66.5729 26.052C66.8769 26.276 67.2489 26.388 67.6889 26.388ZM72.6101 27V20.796H76.8221V21.612H73.5341V27H72.6101ZM78.1648 28.92V20.796H79.0888V22.044C79.7128 21.124 80.5048 20.664 81.4648 20.664C82.2568 20.664 82.9488 20.96 83.5408 21.552C84.1328 22.136 84.4288 22.92 84.4288 23.904C84.4288 24.872 84.1328 25.652 83.5408 26.244C82.9488 26.836 82.2568 27.132 81.4648 27.132C80.4888 27.132 79.6968 26.692 79.0888 25.812V28.92H78.1648ZM81.2968 26.304C81.9208 26.304 82.4408 26.088 82.8568 25.656C83.2728 25.216 83.4808 24.628 83.4808 23.892C83.4808 23.18 83.2688 22.604 82.8448 22.164C82.4208 21.716 81.9048 21.492 81.2968 21.492C80.6968 21.492 80.1728 21.72 79.7248 22.176C79.2768 22.632 79.0528 23.208 79.0528 23.904C79.0528 24.6 79.2768 25.176 79.7248 25.632C80.1728 26.08 80.6968 26.304 81.2968 26.304ZM87.0936 28.956C86.6456 28.956 86.2056 28.852 85.7736 28.644L86.0856 27.912C86.3816 28.064 86.7056 28.14 87.0576 28.14C87.3376 28.14 87.5736 28.052 87.7656 27.876C87.9576 27.708 88.1456 27.408 88.3296 26.976L85.5096 20.796H86.5296L88.7856 25.968L90.7776 20.796H91.7616L89.1576 27.204C88.8936 27.836 88.6016 28.284 88.2816 28.548C87.9616 28.82 87.5656 28.956 87.0936 28.956ZM95.1914 27.144C94.2394 27.144 93.3834 26.836 92.6234 26.22L93.0914 25.536C93.7234 26.072 94.4154 26.34 95.1674 26.34C95.5914 26.34 95.9514 26.244 96.2474 26.052C96.5514 25.852 96.7034 25.58 96.7034 25.236C96.7034 24.916 96.5674 24.668 96.2954 24.492C96.0234 24.308 95.6394 24.216 95.1434 24.216H94.3154V23.46H95.1554C95.5634 23.46 95.8954 23.364 96.1514 23.172C96.4074 22.972 96.5354 22.712 96.5354 22.392C96.5354 22.112 96.4074 21.888 96.1514 21.72C95.9034 21.552 95.5834 21.468 95.1914 21.468C94.4554 21.468 93.8274 21.676 93.3074 22.092L92.8514 21.444C93.5234 20.924 94.3234 20.664 95.2514 20.664C95.9394 20.664 96.4834 20.82 96.8834 21.132C97.2914 21.436 97.4954 21.832 97.4954 22.32C97.4954 23 97.1634 23.476 96.4994 23.748C97.2674 24.02 97.6514 24.528 97.6514 25.272C97.6514 25.792 97.4274 26.236 96.9794 26.604C96.5314 26.964 95.9354 27.144 95.1914 27.144ZM99.364 27V20.796H100.288V25.704L103.972 20.796H104.872V27H103.948V22.092L100.252 27H99.364ZM108.434 27V21.612H106.214V20.796H111.59V21.612H109.37V27H108.434ZM112.934 27V20.796H113.858V23.124H115.514C116.234 23.124 116.822 23.28 117.278 23.592C117.734 23.896 117.962 24.36 117.962 24.984C117.962 25.6 117.75 26.092 117.326 26.46C116.902 26.82 116.334 27 115.622 27H112.934ZM113.858 26.184H115.538C116.01 26.184 116.374 26.084 116.63 25.884C116.894 25.684 117.026 25.392 117.026 25.008C117.026 24.656 116.89 24.388 116.618 24.204C116.354 24.012 115.982 23.916 115.502 23.916H113.858V26.184ZM122.989 27V20.796H125.989C126.605 20.796 127.097 20.936 127.465 21.216C127.833 21.496 128.017 21.872 128.017 22.344C128.017 23.008 127.673 23.484 126.985 23.772C127.897 24.02 128.353 24.532 128.353 25.308C128.353 25.828 128.149 26.24 127.741 26.544C127.333 26.848 126.785 27 126.097 27H122.989ZM123.913 26.208H125.977C126.417 26.208 126.765 26.116 127.021 25.932C127.277 25.748 127.405 25.492 127.405 25.164C127.405 24.86 127.269 24.624 126.997 24.456C126.733 24.288 126.353 24.204 125.857 24.204H123.913V26.208ZM123.913 23.46H125.821C126.205 23.46 126.509 23.376 126.733 23.208C126.965 23.032 127.081 22.784 127.081 22.464C127.081 22.2 126.973 21.988 126.757 21.828C126.541 21.668 126.237 21.588 125.845 21.588H123.913V23.46Z" fill="white"/>
<path d="M57.4468 43L62.0684 32.4238H63.7822L68.3965 43H66.4482L65.3862 40.4658H60.4204L59.3364 43H57.4468ZM61.0942 38.8325H64.7124L62.896 34.6284L61.0942 38.8325ZM69.9932 45.4023V35.0825H71.8022V36.4009C72.5054 35.4097 73.4014 34.9141 74.4902 34.9141C74.9639 34.9141 75.4204 35.0068 75.8599 35.1924C76.2993 35.3779 76.6924 35.6416 77.0391 35.9834C77.3857 36.3252 77.6616 36.7622 77.8667 37.2944C78.0767 37.8267 78.1816 38.4126 78.1816 39.0522C78.1816 39.687 78.0767 40.2681 77.8667 40.7954C77.6616 41.3228 77.3857 41.7573 77.0391 42.0991C76.6973 42.4409 76.3066 42.7046 75.8672 42.8901C75.4277 43.0757 74.9688 43.1685 74.4902 43.1685C73.4062 43.1685 72.5103 42.7021 71.8022 41.7695V45.4023H69.9932ZM71.7583 39.0522C71.7583 39.7944 71.9854 40.4023 72.4395 40.876C72.8936 41.3496 73.438 41.5864 74.0728 41.5864C74.7124 41.5864 75.2495 41.3545 75.6841 40.8906C76.1187 40.4219 76.3359 39.7993 76.3359 39.0229C76.3359 38.2759 76.1162 37.668 75.6768 37.1992C75.2373 36.7256 74.7026 36.4888 74.0728 36.4888C73.438 36.4888 72.8936 36.728 72.4395 37.2065C71.9854 37.6851 71.7583 38.3003 71.7583 39.0522ZM80.042 45.4023V35.0825H81.8511V36.4009C82.5542 35.4097 83.4502 34.9141 84.5391 34.9141C85.0127 34.9141 85.4692 35.0068 85.9087 35.1924C86.3481 35.3779 86.7412 35.6416 87.0879 35.9834C87.4346 36.3252 87.7104 36.7622 87.9155 37.2944C88.1255 37.8267 88.2305 38.4126 88.2305 39.0522C88.2305 39.687 88.1255 40.2681 87.9155 40.7954C87.7104 41.3228 87.4346 41.7573 87.0879 42.0991C86.7461 42.4409 86.3555 42.7046 85.916 42.8901C85.4766 43.0757 85.0176 43.1685 84.5391 43.1685C83.4551 43.1685 82.5591 42.7021 81.8511 41.7695V45.4023H80.042ZM81.8071 39.0522C81.8071 39.7944 82.0342 40.4023 82.4883 40.876C82.9424 41.3496 83.4868 41.5864 84.1216 41.5864C84.7612 41.5864 85.2983 41.3545 85.7329 40.8906C86.1675 40.4219 86.3848 39.7993 86.3848 39.0229C86.3848 38.2759 86.165 37.668 85.7256 37.1992C85.2861 36.7256 84.7515 36.4888 84.1216 36.4888C83.4868 36.4888 82.9424 36.728 82.4883 37.2065C82.0342 37.6851 81.8071 38.3003 81.8071 39.0522ZM94.0898 41.4692L95.2031 40.1509C95.7256 40.605 96.2505 40.9468 96.7778 41.1763C97.3052 41.4009 97.8838 41.5132 98.5137 41.5132C99.085 41.5132 99.5366 41.3936 99.8687 41.1543C100.206 40.9102 100.374 40.5806 100.374 40.1655C100.374 39.9019 100.313 39.6846 100.191 39.5137C100.069 39.3379 99.8345 39.1719 99.4878 39.0156C99.146 38.8545 98.6528 38.6982 98.0083 38.5469C97.4028 38.4053 96.9023 38.2588 96.5068 38.1074C96.1113 37.9512 95.7524 37.7534 95.4302 37.5142C95.1128 37.2749 94.8784 36.9844 94.7271 36.6426C94.5806 36.2959 94.5073 35.8809 94.5073 35.3975C94.5073 34.499 94.8418 33.7666 95.5107 33.2002C96.1846 32.6338 97.0464 32.3506 98.0962 32.3506C99.5464 32.3506 100.816 32.79 101.905 33.6689L100.916 35.0679C99.9443 34.3452 98.9946 33.9839 98.0669 33.9839C97.5396 33.9839 97.1221 34.1035 96.8145 34.3428C96.5068 34.582 96.353 34.8872 96.353 35.2583C96.353 35.5366 96.4214 35.7661 96.5581 35.9468C96.6997 36.1274 96.9463 36.2935 97.2979 36.4448C97.6494 36.5962 98.1646 36.7524 98.8433 36.9136C100.01 37.1968 100.865 37.5728 101.407 38.0415C101.949 38.5054 102.22 39.1621 102.22 40.0117C102.22 40.9785 101.873 41.7427 101.18 42.3042C100.491 42.8657 99.5879 43.1465 98.4697 43.1465C96.7998 43.1465 95.3398 42.5874 94.0898 41.4692ZM103.553 36.6426V35.0825H104.556V32.9072H106.373V35.0825H108.497V36.6426H106.373V40.5244C106.373 41.1836 106.697 41.5132 107.347 41.5132C107.737 41.5132 108.111 41.4229 108.467 41.2422V42.729C107.999 42.9976 107.454 43.1318 106.834 43.1318C105.315 43.1318 104.556 42.3579 104.556 40.8101V36.6426H103.553ZM109.661 39.0522C109.661 38.3052 109.842 37.6167 110.203 36.9868C110.569 36.3521 111.077 35.8491 111.727 35.478C112.381 35.1021 113.104 34.9141 113.895 34.9141C114.69 34.9141 115.411 35.0996 116.055 35.4707C116.7 35.8369 117.203 36.3374 117.564 36.9722C117.925 37.6021 118.106 38.2954 118.106 39.0522C118.106 39.6089 117.999 40.1411 117.784 40.6489C117.569 41.1519 117.276 41.5913 116.905 41.9673C116.534 42.3384 116.084 42.6338 115.557 42.8535C115.03 43.0732 114.466 43.1831 113.865 43.1831C113.074 43.1831 112.356 42.9976 111.712 42.6265C111.067 42.2554 110.564 41.7549 110.203 41.125C109.842 40.4951 109.661 39.8042 109.661 39.0522ZM111.478 39.0522C111.478 39.7554 111.707 40.3584 112.166 40.8613C112.625 41.3594 113.201 41.6084 113.895 41.6084C114.612 41.6084 115.191 41.3618 115.63 40.8687C116.07 40.3755 116.29 39.77 116.29 39.0522C116.29 38.3442 116.06 37.7437 115.601 37.2505C115.147 36.7524 114.568 36.5034 113.865 36.5034C113.152 36.5034 112.576 36.7476 112.137 37.2358C111.697 37.7241 111.478 38.3296 111.478 39.0522ZM119.959 43V35.0825H121.768V36.8623C122.032 36.2373 122.398 35.7515 122.867 35.4048C123.301 35.0874 123.819 34.9287 124.419 34.9287C124.468 34.9287 124.52 34.9287 124.573 34.9287V36.8477H124.471C123.65 36.8477 122.994 37.1162 122.5 37.6533C122.012 38.1855 121.768 38.9619 121.768 39.9824V43H119.959ZM125.438 39.0376C125.438 38.2856 125.601 37.5972 125.928 36.9722C126.255 36.3423 126.717 35.8418 127.312 35.4707C127.908 35.0996 128.575 34.9141 129.312 34.9141C129.805 34.9141 130.259 34.9897 130.674 35.1411C131.089 35.2876 131.443 35.4927 131.736 35.7563C132.034 36.02 132.286 36.3325 132.491 36.6938C132.701 37.0503 132.854 37.4385 132.952 37.8584C133.055 38.2783 133.106 38.7178 133.106 39.1768C133.106 39.3965 133.096 39.5649 133.077 39.6821H127.254C127.352 40.3169 127.605 40.8125 128.016 41.1689C128.431 41.5205 128.936 41.6963 129.532 41.6963C129.961 41.6963 130.345 41.6206 130.682 41.4692C131.019 41.313 131.351 41.0737 131.678 40.7515L132.747 41.6963C131.927 42.6875 130.845 43.1831 129.502 43.1831C128.741 43.1831 128.052 43.0122 127.437 42.6704C126.822 42.3286 126.333 41.8403 125.972 41.2056C125.616 40.5708 125.438 39.8481 125.438 39.0376ZM127.239 38.4883H131.304C131.241 37.873 131.033 37.3726 130.682 36.9868C130.335 36.5962 129.874 36.4009 129.297 36.4009C128.75 36.4009 128.292 36.5938 127.92 36.9795C127.554 37.3604 127.327 37.8633 127.239 38.4883Z" fill="white"/>
</svg>

<svg width="174" height="64" viewBox="0 0 174 64" fill="none" xmlns="http://www.w3.org/2000/svg"><rect width="174" height="64" rx="8" fill="#000"/><path d="M39.485 29.201a4.938 4.938 0 00-.646 2.38c0 .938.279 1.856.8 2.638a4.792 4.792 0 002.127 1.76 10.948 10.948 0 01-1.522 3.093c-.897 1.338-1.838 2.645-3.33 2.67-.71.016-1.19-.188-1.689-.4-.52-.221-1.063-.452-1.912-.452-.901 0-1.468.238-2.015.468-.472.198-.93.39-1.575.417-1.421.052-2.508-1.428-3.437-2.754-1.858-2.706-3.305-7.627-1.365-10.976a5.34 5.34 0 014.485-2.728c.807-.016 1.58.294 2.258.565.52.208.982.393 1.361.393.333 0 .783-.178 1.308-.385.826-.327 1.837-.727 2.867-.62a5.09 5.09 0 014.002 2.158 4.955 4.955 0 00-1.717 1.773zM37.217 20a4.863 4.863 0 01-1.117 3.49 4.11 4.11 0 01-3.246 1.531A4.624 4.624 0 0134 21.66 4.976 4.976 0 0137.217 20zm23.755 7.144c-1.344 0-2.512-.452-3.504-1.356l.564-.66c.848.8 1.832 1.2 2.952 1.2.536 0 .996-.148 1.38-.444.384-.304.576-.696.576-1.176 0-.52-.208-.908-.624-1.164-.416-.256-.964-.384-1.644-.384h-.924v-.78h.924c.608 0 1.1-.14 1.476-.42a1.38 1.38 0 00.576-1.164c0-.432-.18-.788-.54-1.068-.352-.288-.804-.432-1.356-.432-.944 0-1.768.316-2.472.948l-.552-.66c.44-.376.896-.656 1.368-.84.48-.184 1.04-.276 1.68-.276.832 0 1.512.212 2.04.636.528.424.792.96.792 1.608 0 .952-.512 1.612-1.536 1.98.536.16.964.412 1.284.756.32.344.48.78.48 1.308 0 .68-.276 1.248-.828 1.704-.544.456-1.248.684-2.112.684zm6.537-.012c-.632 0-1.176-.172-1.632-.516-.456-.344-.684-.824-.684-1.44 0-.648.24-1.148.72-1.5.48-.352 1.124-.528 1.932-.528.64 0 1.272.088 1.896.264v-.192c0-.544-.16-.96-.48-1.248-.32-.288-.772-.432-1.356-.432-.608 0-1.236.148-1.884.444l-.276-.756c.768-.352 1.52-.528 2.256-.528.88 0 1.548.228 2.004.684.432.432.648 1.04.648 1.824V27h-.912v-.924c-.552.704-1.296 1.056-2.232 1.056zm.18-.744c.576 0 1.064-.156 1.464-.468.4-.312.6-.712.6-1.2v-.576a6.492 6.492 0 00-1.812-.264c-.568 0-1.012.116-1.332.348-.32.224-.48.532-.48.924 0 .376.148.676.444.9.304.224.676.336 1.116.336zM72.61 27v-6.204h4.212v.816h-3.288V27h-.924zm5.555 1.92v-8.124h.924v1.248c.624-.92 1.416-1.38 2.376-1.38.792 0 1.484.296 2.076.888.592.584.888 1.368.888 2.352 0 .968-.296 1.748-.888 2.34-.592.592-1.284.888-2.076.888-.976 0-1.768-.44-2.376-1.32v3.108h-.924zm3.132-2.616c.624 0 1.144-.216 1.56-.648.416-.44.624-1.028.624-1.764 0-.712-.212-1.288-.636-1.728a2.051 2.051 0 00-1.548-.672c-.6 0-1.124.228-1.572.684-.448.456-.672 1.032-.672 1.728s.224 1.272.672 1.728c.448.448.972.672 1.572.672zm5.797 2.652c-.448 0-.888-.104-1.32-.312l.312-.732c.296.152.62.228.972.228.28 0 .516-.088.708-.264.192-.168.38-.468.564-.9l-2.82-6.18h1.02l2.256 5.172 1.992-5.172h.984l-2.604 6.408c-.264.632-.556 1.08-.876 1.344-.32.272-.716.408-1.188.408zm8.097-1.812c-.952 0-1.808-.308-2.568-.924l.468-.684c.632.536 1.324.804 2.076.804.424 0 .784-.096 1.08-.288.304-.2.456-.472.456-.816a.838.838 0 00-.408-.744c-.272-.184-.656-.276-1.152-.276h-.828v-.756h.84c.408 0 .74-.096.996-.288.256-.2.384-.46.384-.78 0-.28-.128-.504-.384-.672-.248-.168-.568-.252-.96-.252-.736 0-1.364.208-1.884.624l-.456-.648c.672-.52 1.472-.78 2.4-.78.688 0 1.232.156 1.632.468.408.304.612.7.612 1.188 0 .68-.332 1.156-.996 1.428.768.272 1.152.78 1.152 1.524 0 .52-.224.964-.672 1.332-.448.36-1.044.54-1.788.54zM99.364 27v-6.204h.924v4.908l3.684-4.908h.9V27h-.924v-4.908L100.252 27h-.888zm9.07 0v-5.388h-2.22v-.816h5.376v.816h-2.22V27h-.936zm4.5 0v-6.204h.924v2.328h1.656c.72 0 1.308.156 1.764.468.456.304.684.768.684 1.392 0 .616-.212 1.108-.636 1.476-.424.36-.992.54-1.704.54h-2.688zm.924-.816h1.68c.472 0 .836-.1 1.092-.3.264-.2.396-.492.396-.876 0-.352-.136-.62-.408-.804-.264-.192-.636-.288-1.116-.288h-1.644v2.268zm9.131.816v-6.204h3c.616 0 1.108.14 1.476.42.368.28.552.656.552 1.128 0 .664-.344 1.14-1.032 1.428.912.248 1.368.76 1.368 1.536 0 .52-.204.932-.612 1.236-.408.304-.956.456-1.644.456h-3.108zm.924-.792h2.064c.44 0 .788-.092 1.044-.276a.893.893 0 00.384-.768c0-.304-.136-.54-.408-.708-.264-.168-.644-.252-1.14-.252h-1.944v2.004zm0-2.748h1.908c.384 0 .688-.084.912-.252.232-.176.348-.424.348-.744a.753.753 0 00-.324-.636c-.216-.16-.52-.24-.912-.24h-1.932v1.872zM57.447 43l4.621-10.576h1.714L68.397 43h-1.949l-1.062-2.534H60.42L59.336 43h-1.89zm3.647-4.167h3.618l-1.816-4.205-1.802 4.205zm8.9 6.57v-10.32h1.808V36.4c.703-.991 1.6-1.487 2.688-1.487.474 0 .93.093 1.37.278.44.186.832.45 1.18.791.346.342.622.78.827 1.311a4.75 4.75 0 01.315 1.758c0 .635-.105 1.216-.315 1.743-.205.528-.481.962-.828 1.304a3.653 3.653 0 01-1.172.791c-.44.186-.898.279-1.377.279-1.084 0-1.98-.467-2.688-1.4v3.633h-1.809zm1.764-6.35c0 .741.227 1.35.681 1.823.455.474.999.71 1.634.71a2.12 2.12 0 001.611-.695c.435-.47.652-1.092.652-1.868 0-.747-.22-1.355-.66-1.824-.439-.473-.973-.71-1.603-.71-.635 0-1.18.239-1.633.718-.455.478-.682 1.093-.682 1.845zm8.284 6.35v-10.32h1.81V36.4c.702-.991 1.598-1.487 2.687-1.487.474 0 .93.093 1.37.278.44.186.832.45 1.179.791.347.342.622.78.828 1.311a4.75 4.75 0 01.315 1.758c0 .635-.105 1.216-.316 1.743-.205.528-.48.962-.827 1.304a3.652 3.652 0 01-1.172.791c-.44.186-.898.279-1.377.279-1.084 0-1.98-.467-2.688-1.4v3.633h-1.809zm1.765-6.35c0 .741.227 1.35.681 1.823.454.474.999.71 1.634.71a2.12 2.12 0 001.61-.695c.436-.47.653-1.092.653-1.868 0-.747-.22-1.355-.66-1.824-.439-.473-.974-.71-1.603-.71-.635 0-1.18.239-1.634.718-.454.478-.68 1.093-.68 1.845zm12.283 2.416l1.113-1.318c.523.454 1.047.796 1.575 1.025a4.385 4.385 0 001.736.337c.571 0 1.023-.12 1.355-.359.337-.244.505-.573.505-.989 0-.263-.061-.48-.183-.651-.122-.176-.356-.342-.703-.498-.342-.161-.835-.318-1.48-.47a11.833 11.833 0 01-1.501-.439 4.68 4.68 0 01-1.077-.593 2.194 2.194 0 01-.703-.871c-.146-.347-.22-.762-.22-1.245 0-.899.335-1.631 1.004-2.198.674-.566 1.535-.85 2.585-.85 1.45 0 2.72.44 3.809 1.319l-.989 1.399c-.972-.723-1.921-1.084-2.85-1.084-.526 0-.944.12-1.252.359-.307.239-.461.544-.461.915 0 .279.068.508.205.689.142.18.388.346.74.498.351.151.867.307 1.545.469 1.167.283 2.022.659 2.564 1.127.542.464.813 1.121.813 1.97 0 .967-.347 1.732-1.04 2.293-.689.562-1.592.843-2.71.843-1.67 0-3.13-.56-4.38-1.678zm9.463-4.826v-1.56h1.003v-2.176h1.817v2.176h2.124v1.56h-2.124v3.881c0 .66.324.99.974.99.39 0 .764-.091 1.12-.272v1.487c-.468.269-1.013.403-1.633.403-1.519 0-2.278-.774-2.278-2.322v-4.167h-1.003zm6.108 2.41c0-.748.181-1.436.542-2.066a4.032 4.032 0 011.524-1.509 4.274 4.274 0 012.168-.564 4.25 4.25 0 012.16.557 3.94 3.94 0 011.509 1.501 4.11 4.11 0 01.542 2.08c0 .557-.107 1.09-.322 1.597a4.217 4.217 0 01-.879 1.318 4.126 4.126 0 01-1.348.886c-.527.22-1.091.33-1.692.33a4.235 4.235 0 01-2.153-.556 4.008 4.008 0 01-1.509-1.502 4.096 4.096 0 01-.542-2.073zm1.817 0c0 .702.229 1.305.688 1.808.459.498 1.035.747 1.729.747.717 0 1.296-.246 1.735-.74.44-.492.66-1.098.66-1.816 0-.708-.23-1.308-.689-1.801-.454-.499-1.033-.748-1.736-.748-.713 0-1.289.245-1.728.733-.44.488-.659 1.094-.659 1.816zM119.959 43v-7.917h1.809v1.78c.264-.626.63-1.111 1.099-1.458.434-.318.952-.476 1.552-.476h.154v1.919h-.102c-.821 0-1.477.268-1.971.805-.488.532-.732 1.309-.732 2.33V43h-1.809zm5.479-3.962c0-.752.163-1.44.49-2.066.327-.63.789-1.13 1.384-1.501a3.708 3.708 0 012-.557c.493 0 .947.076 1.362.227.415.147.769.352 1.062.615.298.264.55.577.755.938.21.356.363.744.461 1.164.103.42.154.86.154 1.319 0 .22-.01.388-.029.505h-5.823c.098.635.351 1.13.762 1.487.415.352.92.527 1.516.527a2.78 2.78 0 001.15-.227 3.59 3.59 0 00.996-.718l1.069.945c-.82.992-1.902 1.487-3.245 1.487-.761 0-1.45-.17-2.065-.513a3.772 3.772 0 01-1.465-1.464c-.356-.635-.534-1.358-.534-2.168zm1.801-.55h4.065c-.063-.615-.271-1.115-.622-1.501-.347-.39-.808-.586-1.385-.586-.547 0-1.005.193-1.377.578-.366.381-.593.884-.681 1.51z" fill="#fff"/></svg>
